X: 160
T:Mr John Stewart's Reel -- of Bombay
B:William Marshall's Scottish Airs, Melodies, Strathspeys, Reels &c (1822)
C:William Marshall
L:1/8
M:C|
O:Scotland
R:Reel
Z:Clark Bernst + Richard Robinson
%%Page:34 - 2
F:http://richardrobinson.tunebook.org.uk/tune/4003
%%TBL:{"version":1,"type":"tune","id":"4003"}
K:D
%%staves {1 2}
V:1
(DFA).d fedc | dABd (GF)(ED) | (EGB).e ^gebe | ^geBe (dc)(Bd) |
(DFA).d fedc | dABd (GF)(ED) | GBEG  FADF | Eege (dc)(Bd) |]
AFDF d(FD).F | AFDF A3 d | B^GEG eGEG | B^GEG B3 d |
AFDF dFDF | A(FD).F A3 ^g | afge f^d e2 | (^GE)EG B2 (Bd) |]
V:2 middle=d clef=bass
L:1/4
dddd | dgdf | eeee | eea=g | dddd | dgdf | ecdf | geag |] \
dddd | dddd | eeee | eeee | dddd | dddd | def=g | eeee |]

